fs/notebook_arrow_curve_down_20_filled.svg

<svg viewBox="0 0 21 20" fill="none" xmlns="http://www.w3.org/2000/svg" height="1em" width="1em">
  <path d="M1.99707 5.5C1.99707 3.01472 4.01253 1 6.49872 1C8.98491 1 11.0003 3.01472 11.0003 5.5C11.0003 7.98528 8.98491 10 6.49872 10C4.01253 10 1.99707 7.98528 1.99707 5.5ZM8.39586 6.39645L7.49909 7.29289V5.75C7.49909 4.23122 6.26741 3 4.74808 3H4.49799C4.22174 3 3.9978 3.22386 3.9978 3.5C3.9978 3.77614 4.22174 4 4.49799 4H4.74808C5.71493 4 6.49872 4.7835 6.49872 5.75V7.29289L5.60194 6.39645C5.40661 6.20118 5.08991 6.20118 4.89458 6.39645C4.69924 6.59171 4.69924 6.90829 4.89458 7.10355L6.64734 8.85567C6.69481 8.90256 6.74932 8.93802 6.80744 8.96206C6.86641 8.98651 6.93108 9 6.9989 9C7.06672 9 7.13139 8.98651 7.19036 8.96206C7.24935 8.93766 7.30462 8.90149 7.35258 8.85355L9.10322 7.10355C9.29855 6.90829 9.29855 6.59171 9.10322 6.39645C8.90789 6.20118 8.5912 6.20118 8.39586 6.39645ZM11.9978 5.5C11.9978 8.53757 9.53447 11 6.49579 11C5.59406 11 4.743 10.7832 3.99194 10.3988V16C3.99194 17.1046 4.8877 18 5.99267 18H13.9956C15.1006 18 15.9963 17.1046 15.9963 16V4C15.9963 2.89543 15.1006 2 13.9956 2H10.7402C11.5258 2.95094 11.9978 4.17037 11.9978 5.5ZM16.9967 6H17.4969C17.7731 6 17.9971 6.22386 17.9971 6.5V8C17.9971 8.27614 17.7731 8.5 17.4969 8.5H16.9967V6ZM16.9967 9.5H17.4969C17.7731 9.5 17.9971 9.72386 17.9971 10V11.5C17.9971 11.7761 17.7731 12 17.4969 12H16.9967V9.5ZM16.9967 13H17.4969C17.7731 13 17.9971 13.2239 17.9971 13.5V15C17.9971 15.2761 17.7731 15.5 17.4969 15.5H16.9967V13Z" fill="#212121"/>
</svg>

<svg viewBox="0 0 21 20" fill="none" xmlns="http://www.w3.org/2000/svg" height="1em" width="1em">
  <path d="M1.997 5.5A4.5 4.5 0 0 1 6.5 1a4.5 4.5 0 1 1-4.502 4.5Zm6.399.896-.897.897V5.75A2.75 2.75 0 0 0 4.75 3h-.251a.5.5 0 1 0 0 1h.25c.967 0 1.75.784 1.75 1.75v1.543l-.896-.897a.5.5 0 0 0-.707.708l1.752 1.752a.499.499 0 0 0 .706-.002l1.75-1.75a.5.5 0 1 0-.707-.708Zm3.602-.896a5.501 5.501 0 0 1-8.006 4.899V16a2 2 0 0 0 2 2h8.004a2 2 0 0 0 2-2V4a2 2 0 0 0-2-2H10.74a5.476 5.476 0 0 1 1.258 3.5Zm4.999.5h.5a.5.5 0 0 1 .5.5V8a.5.5 0 0 1-.5.5h-.5V6Zm0 3.5h.5a.5.5 0 0 1 .5.5v1.5a.5.5 0 0 1-.5.5h-.5V9.5Zm0 3.5h.5a.5.5 0 0 1 .5.5V15a.5.5 0 0 1-.5.5h-.5V13Z" fill="#212121"/>
</svg>
